assets/niconico/original.svg

<svg viewBox="0 0 24 24" xmlns="http://www.w3.org/2000/svg" fill="#231815"><path d="m.4787 7.534v12.1279a2.0213 2.0213 0 0 0 2.0213 2.0213h2.3888l1.323 2.0948a.4778.4778 0 0 0 .4043.2205.4778.4778 0 0 0 .441-.2205l1.323-2.0948h6.9828l1.323 2.0948a.4778.4778 0 0 0 .441.2205c.1838 0 .3308-.0735.4043-.2205l1.323-2.0948h2.6462a2.0213 2.0213 0 0 0 2.0213-2.0213v-12.128a2.0213 2.0213 0 0 0 -2.0213-1.9845h-7.681l4.4468-4.4469-1.1025-1.1025-5.1452 5.1452-5.2185-5.1452-1.1027 1.1025 4.4102 4.4102h-7.5708a2.0213 2.0213 0 0 0 -2.058 2.058z"/></svg>

<svg xmlns="http://www.w3.org/2000/svg" fill="#231815" viewBox="0 0 24 24"><path d="M.479 7.534v12.128A2.02 2.02 0 0 0 2.5 21.683h2.389l1.323 2.095a.48.48 0 0 0 .404.22.48.48 0 0 0 .441-.22l1.323-2.095h6.983l1.323 2.095a.48.48 0 0 0 .44.22c.185 0 .332-.073.405-.22l1.323-2.095H21.5a2.02 2.02 0 0 0 2.022-2.021V7.534A2.02 2.02 0 0 0 21.5 5.549h-7.68l4.446-4.447L17.164 0l-5.146 5.145L6.8 0 5.697 1.102l4.41 4.41h-7.57A2.02 2.02 0 0 0 .479 7.572z"/></svg>
